X:1
T:Chaconne des Scaramouches (chaconne des arlequins)
T:Chaconne des Scaramouches (chaconne des arlequins)
T:Le Bourgeois gentilhomme, 1670
T:Jean-Baptiste Lully
T:D-Rtt Inc. IIIc/4 Regensburg), no. 28, fols. 24v-25v LWV 43/46 
T:ed. David Chung 2014
T:Performance Notes In the seventeenth century, the notation is under-prescriptive by modern standard and some elements of the performance may only be partially indicated or not indicated at all. Generally speaking, the performer has the discretion to supply in performance much that is not indicated in the source, such as by adding ornaments as well as melodic and rhythmic fillers, by spreading chords in a variety of ways, by embellishing the cadences, and sometimes even by enriching the texture with points of imitation. The modern performer can take lessons from D’Anglebert, who re-edited a selection of his autograph pieces for publication in 1689.1 The performance attitude and elusive nature of the seventeenth-century French repertory has been exhaustively discussed by David Fuller, Ronald Broude, Bruce Gustafson, and others. 
C:Jean-Baptiste Lully
%%score { ( 1 4 ) | ( 2 3 ) }
L:1/8
M:3/4
K:G
V:1 treble nm="Piano"
V:4 treble 
V:2 bass 
V:3 bass 
V:1
 Mg2 gabg | a2 Md3 d | Md2 P^c3 B/d/ | d2 MA3 B |{B} c2 Mc3 d | MB3 ABc |{c} d3 de=f | Pe3 efg | %8
 Pf3 f Mg2- | ga Pa3 g/a/ | g2 MGABc |:S{c} d3 ede | dedede | dededc | PB2 Bc d2 | AB{B} c2 z2 | %16
 z2 MGA B2 | McB A2 Bc | PB2 Bcde | PA2 ABcd | MGFGABc | Pc>B PA3 G | MG2 Mg3 g | Mg2 f3 e | %24
 P^d3 d Me2- | ef Pf3 e | e2 Mg3 g | Mg2 Pf3 f | Mf2 gfed | P^c2 Ma2 ba | gf Pe2 fg | Pf2 Md3 d | %32
 Md2 Pc3 c | Mc2 PB3 B | MB2 PA3 A | A6 | z2 d2 Mg2 | Pe2 e2 Ma2 | Pf3 fga |{a} b4- bb | %40
 Mb2 Pa3 a | Ma3 g/f/{f} g2- | ga Pf3 g |S Mg2 GABc :| %44
V:2
 z A, B,C D2 | z A, D4 | z2 G,4 | z F,/A,/ D4 | A,4 A,2 | z2 G,4 | z D, G,4 | z2 G,2 A,2 | %8
 A,4 [D,G,]2 | G,,2 D,2 D,,2 | z D, G,4 |: z2 A,4 | z2 G,4 | z2 F,2 D,2 | z D, G,4 | A,6 | %16
 z G, A,4- | A,2 F,2 D,2 | z D, G,4 | A,4 D,2 | z2 G,4 | A,>G, F,2 D,2 |"^[ Fin ]" z B,,/D,/ G,4 | %23
 z2 C4 | F4 E2 | E,2 ^D2 B,2 | E,3 =F,E,D, | A,2"_(a)" A,4 | z2 B,4 | A,G, D4 | B,2 ^C2 A,2 | %31
 z F,/A,/ D4 | z G, C4 | A,2 D4 | C2 [E,A,]4 | D,2 D,E,PD,C, | z D, G,4 | G,2 [E,A,]4 | z2 A,4 | %39
"_(a) a second lower in Source: c" z2 D4 | z2 E4 | z2 D4 | G,2 D4 | z D, G,4 :| %44
V:3
 G,6 | F,4 F,2 | E,4 E,2 | D,4 D,2 | z2 A,,4 | E,3 E,D,C, | B,,4 G,,2 | C,4 A,,2 | D,2 C,2 B,,2 | %9
 x2 F,2 D,2 | G,,4 G,,2 |: F,4 D,2 | E,4 C,2 | D,4 D,,2 | G,,4 G,,2 | F,2 =F,2 D,2 | E,4 E,2 | %17
 C,2 D,2 D,,2 | G,,4 G,,2 | F,2 =F,2 x2 | E,4 E,2 | C,2 D,2 D,,2 | G,,4 G,,2 | A,4 A,2 | %24
 B,2 A,2 G,2 | x2 B,2 B,,2 | x6 | ^C,2 D,4 | G,4 G,2 | x2 F,2 G,2- | G,2 A,2- A,,2 | D,4 D,2 | %32
 E,4 E,2 | F,2 G,4 | C,2 ^C,4 | x6 | B,,4 G,,2 | C,2 ^C,2 A,,2 | D,3 D,E,F, | G,3 A,B,G, | C4 C2 | %41
 B,4 B,2 | x2 D2 D,2 | G,,4 G,,2 :| %44
V:4
 x6 | x6 | x6 | x6 | x6 | x6 | x6 | x6 | x6 | x6 | x6 |: x6 | x6 | x6 | x6 | x6 | x6 | x6 | x6 | %19
 x6 | x6 | x6 | x6 | x6 | x6 | x6 | x6 | x6 | x6 | x6 | x6 | x6 | x6 | x6 | x6 | [DF]6 | x6 | x6 | %38
 x6 | x6 | x6 | x6 | x6 | x6 :| %44

